X: 3102
T: The Original Sett of the Braes of Marr
%R: strathspey
B: Niel Gow & Sons "Complete Repository" v.3 p.10 #2
Z: 2021 John Chambers <jc:trillian.mit.edu>
M: C
L: 1/8
Q: "Slow"
K: D
% - - - - - - - - - -
V: 1 staves=2
A/G/ \
| (F<A)A>B d>e{de}Tf>e | {c}dBTB>A B>d {c}BA/G/ | (F<A)A>B d>e{de}fd | edgf Te2d :: A/G/ | FAA>D FD {B}AG/F/ |
| GB TB>E GE {c}BA/G/ |[1 FA A>D FD {B}AG/F/ | GB/G/ Fd/F/ TE2D :|[2 FAA>G FA d(e//f//g/) | fda>f Te2d |]
|: A/G/ \
| (F<A)A>B d>e{de}f>e | {c}dBTB>A B>d (c/B/).A/.G/ | (F<A)A>B d>e{de}fd | edaf Te2d :: a/(g/ | f<a) a>d fdad |
| (g<b)b>e gebe |[1 (f<a)a>g fdaf | gb/g/ fd'/f/ Te2d :|[2 !p!f>ae>f d>eTBd | (B/A/)(G/F/) (d/c/).d/.F/ TE2 D |]
% - - - - - - - - - -
V: 2 clef=bass middle=d
z \
| d2[d2f2] [d2f2]d2 | [d2g2][d2g2] [d2g2]bc' | d'2fg fed2 | A2cd aA d :: z | [d2f2a2][d2f2a2] [d2f2a2][d2f2a2] |
| [e2g2b2][e2g2b2] [e2g2b2][e2g2b2] |[1 [d2f2a2][d2f2a2] [d2f2a2][d2f2a2] | [d2g2b2]fd aA d :|[2 d2fe d2fg | f2df aA d |]
|: z \
| d2[d2f2] [d2f2]d2 | [d2g2][d2g2] [d2g2]bc' | d'2fg fed2 | cdfd aA d :: z [K:none clef=treble] [D2F2A2][D2F2A2] [D2F2A2][D2F2A2] |
[K:D]| [E2G2B2][E2G2B2] [E2G2B2][E2G2B2] |[1 [D2F2A2][D2F2A2] [D2F2A2][D2F2A2] | [D2G2B2][D2F2A2] AA, D :|\
[2 [K:none clef=bass middle=d] !p!d'2c'2 b2g2 | f2d2 aA d |]


